X: 16
T: the ALEXANDRIA REEL
C: Andrew Rankine
R: jig
B: "The Complete Andrew Rankine Collection of Scottish Country Dance Tunes" p.21
Z: 2017 John Chambers <jc:trillian.mit.edu>
M: 6/8
L: 1/8
K: A
A/B/ |\
"A"c2c cBA | cdc cBA | "A"c2c "F#m"cBc | "Bm"dBB "E7"B2 G/A/ |\
B2B BAG | BcB BAG | B2B Bcd | "A"cA"D"A "A"A2 :|
|: c/d/ |\
"A"e2e edc | efe edc | "A"e2e "Em"e=gg | "A7"=gff "D"f2 d/e/ |\
"Bm"f2f "E7"fed | "A"e2e "F#7"edc | "Bm"d2d "E7"dcB | "A"cA"D"A "A"A2 :|
|: F |\
"A"EAc EAc | c2c cBA | "A"EAc "F#m"EAc | "Bm"dBB "E7"B2G |\
EGB EGB | B2B BGE | EGB Bcd | "A"cA"D"A "A"A2 :|
